X:1
T:Romantic Film Score
C:Anonymous
M:4/4
L:1/4
K:F#
V:1 clef=treble
F ^F ^G ^A | B F ^F ^G | ^A B F ^F | ^G ^A B2 |
V:2 clef=bass
^D, ^C, ^D, ^C, | ^D, ^C, ^D, ^C, | ^D, ^C, ^D, ^C, | ^D, ^C, ^D, ^C, | 